packages/sources/assets/src/assets/verifone.svg

<svg width="58" height="40" viewBox="0 0 58 40" fill="none" xmlns="http://www.w3.org/2000/svg">
<rect x="0.5" y="0.5" width="57" height="39" rx="3.5" fill="white" stroke="#F3F3F3"/>
<path fill-rule="evenodd" clip-rule="evenodd" d="M24.0415 17.0274H26.1278L26.4632 15.3119H24.3766L24.0415 17.0274ZM23.8254 18.1307H25.9122L24.5866 24.9039C24.4898 24.9381 24.1911 25.0586 23.7787 25.0586C23.222 25.0586 22.7114 24.8384 22.7114 24.0577C22.7114 23.9108 22.728 23.7436 22.7653 23.5536C23.1799 21.44 23.8254 18.1307 23.8254 18.1307ZM44.5448 17.976C43.156 17.976 42.6039 18.8015 42.3448 19.304H42.3202L42.4002 18.1321H40.3382C40.3247 18.3898 40.2355 19.2021 40.1032 19.9027C40.1032 19.9027 39.627 22.3612 39.5369 22.8319C39.4683 23.1915 39.3427 23.7231 39.3427 24.0316C39.3427 24.6885 39.6711 25.0588 40.4037 25.0588C40.8146 25.0588 41.1108 24.9447 41.2186 24.9039L41.9082 21.3765C42.0994 20.4025 42.7936 19.7651 43.6189 19.7651C44.2848 19.7651 44.6031 20.258 44.6031 20.6609C44.6031 21.0116 44.5164 21.4002 44.4493 21.7439L44.1527 23.2545C44.1174 23.4358 44.0419 23.7841 44.0419 24.0573C44.0419 24.7251 44.413 25.0588 45.1176 25.0588C45.5024 25.0588 45.7463 24.9612 45.9191 24.9039L46.5379 21.7418C46.672 21.0271 46.7216 20.6507 46.7216 20.1959C46.7216 18.8864 45.967 17.976 44.5448 17.976ZM35.276 19.6138C34.1097 19.6138 33.4637 20.8238 33.4637 21.9026C33.4637 22.8123 33.8686 23.4215 34.7889 23.4215C35.8293 23.4215 36.6436 22.523 36.6436 20.9894C36.6436 20.2878 36.2755 19.6138 35.276 19.6138ZM34.6611 25.059C32.4269 25.059 31.3579 23.6992 31.3579 21.9659C31.3579 19.5877 32.9669 17.976 35.4534 17.976C37.6108 17.976 38.7564 19.3017 38.7564 21.0042C38.7564 23.5555 37.0378 25.059 34.6611 25.059ZM26.8472 23.4281C26.7997 23.6719 26.7696 23.8426 26.7696 24.0525C26.7696 24.8289 27.281 25.0588 27.8229 25.0588C28.2563 25.0588 28.5244 24.9385 28.6226 24.9039L29.6258 19.7697L31.2481 19.7696L31.5684 18.1307L29.9462 18.1309L30.0251 17.7272C30.1719 16.9702 30.5229 16.6374 31.1301 16.6374C31.5356 16.6374 31.8636 16.7106 31.9776 16.7408L32.2829 15.1824C32.1528 15.149 31.5533 15 30.666 15C29.2521 15 28.3258 15.8715 28.0519 17.2752L27.8842 18.1307H26.8279L26.5075 19.7696H27.5644C27.5644 19.7696 27.1475 21.8924 26.8472 23.4281ZM22.0439 17.9762C20.9966 17.9762 20.4207 18.7142 20.1954 19.3029H20.1713L20.2519 18.1307H18.189C18.1707 18.537 18.087 19.224 17.8768 20.3042C17.6638 21.3988 17.4562 22.4907 17.242 23.5534C17.2053 23.735 17.1889 23.9128 17.1889 24.0632C17.1889 24.6198 17.4599 25.0582 18.2606 25.0582C18.6573 25.0582 18.9328 24.9537 19.065 24.9039L19.6788 21.7639C19.8998 20.5626 20.3014 19.7683 21.4665 19.7683C21.9965 19.7683 22.4999 19.8831 22.6055 19.9145L22.9586 18.1079C22.8824 18.0811 22.5765 17.9762 22.0439 17.9762ZM52.309 20.8759C52.4206 20.2549 52.0647 19.6138 51.2603 19.6138C50.278 19.6138 49.8465 20.2949 49.6539 20.8759H52.309ZM53.2402 23.3963C53.2402 24.3384 52.3414 25.0607 50.75 25.0607C48.5504 25.0607 47.4749 23.6701 47.4749 21.9677C47.4749 20.2778 48.5801 17.9778 51.2778 17.9778C53.0565 17.9778 54.3865 18.8746 54.3865 20.9279C54.3865 21.4329 54.2757 21.9818 54.2281 22.2016H49.5001C49.4922 22.6943 49.9013 23.5482 51.5448 23.5482C52.2772 23.5482 53.1065 23.2855 53.2402 23.2186C53.2402 23.2698 53.2402 23.3624 53.2402 23.3963ZM14.6071 20.8759C14.7186 20.2549 14.3627 19.6138 13.5583 19.6138C12.576 19.6138 12.1447 20.2949 11.9519 20.8759H14.6071ZM15.5381 23.3963C15.5381 24.3384 14.6394 25.0607 13.0481 25.0607C10.8484 25.0607 9.77304 23.6701 9.77304 21.9677C9.77304 20.2778 10.8781 17.9778 13.576 17.9778C15.3546 17.9778 16.6846 18.8746 16.6846 20.9279C16.6846 21.4329 16.5738 21.9818 16.5261 22.2016H11.7982C11.7903 22.6943 12.1993 23.5482 13.8427 23.5482C14.5751 23.5482 15.4045 23.2855 15.5381 23.2186C15.5381 23.2698 15.5381 23.3624 15.5381 23.3963ZM3 15.826H5.09911V22.5605C5.09911 23.5732 5.59571 24.0902 6.39293 24.0902C6.47423 24.0902 6.52217 24.0796 6.53797 24.0757C6.18853 24.6125 5.73548 25.0527 4.69523 25.0527C3.59458 25.0527 3 24.2772 3 23.1133V15.826Z" fill="#1A1919"/>
<path fill-rule="evenodd" clip-rule="evenodd" d="M5.68384 21.8649V22.5718C5.68384 23.2545 6.04715 23.4991 6.44383 23.4991C6.84929 23.4991 7.06633 23.2201 7.26546 22.9028C7.5991 22.3715 11.6762 15.826 11.6762 15.826H9.49434L5.68384 21.8649Z" fill="#00A3DA"/>
</svg>

<svg width="58" height="40" fill="none" xmlns="http://www.w3.org/2000/svg"><rect x=".5" y=".5" width="57" height="39" rx="3.5" fill="#fff" stroke="#F3F3F3"/><path fill-rule="evenodd" clip-rule="evenodd" d="M24.041 17.027h2.087l.335-1.715h-2.086l-.335 1.715Zm-.216 1.104h2.087l-1.325 6.773c-.097.034-.396.155-.808.155-.557 0-1.068-.22-1.068-1.001 0-.147.017-.314.054-.504.415-2.114 1.06-5.423 1.06-5.423Zm20.72-.155c-1.389 0-1.941.826-2.2 1.328h-.025l.08-1.172h-2.062a16.86 16.86 0 0 1-.235 1.77l-.566 2.93c-.069.36-.194.891-.194 1.2 0 .657.328 1.027 1.06 1.027.412 0 .708-.114.816-.155l.69-3.527c.19-.974.885-1.612 1.71-1.612.666 0 .984.493.984.896 0 .35-.087.74-.154 1.083l-.296 1.51c-.036.182-.111.53-.111.803 0 .668.371 1.002 1.076 1.002.384 0 .628-.098.801-.155l.619-3.162c.134-.715.184-1.091.184-1.546 0-1.31-.755-2.22-2.177-2.22Zm-9.269 1.638c-1.166 0-1.812 1.21-1.812 2.289 0 .91.405 1.519 1.325 1.519 1.04 0 1.855-.899 1.855-2.433 0-.701-.368-1.375-1.368-1.375Zm-.615 5.445c-2.234 0-3.303-1.36-3.303-3.093 0-2.378 1.609-3.99 4.095-3.99 2.158 0 3.303 1.326 3.303 3.028 0 2.551-1.718 4.055-4.095 4.055Zm-7.814-1.63a3.073 3.073 0 0 0-.077.623c0 .777.511 1.007 1.053 1.007.433 0 .701-.12.8-.155l1.003-5.134h1.622l.32-1.64h-1.622l.08-.403c.146-.757.497-1.09 1.104-1.09.406 0 .734.074.848.104l.305-1.559A6.613 6.613 0 0 0 30.666 15c-1.414 0-2.34.871-2.614 2.275l-.168.856h-1.056l-.32 1.639h1.056l-.717 3.658Zm-4.803-5.453c-1.047 0-1.623.738-1.849 1.327h-.024l.08-1.172H18.19c-.018.406-.102 1.093-.312 2.173-.213 1.095-.42 2.187-.635 3.25a2.6 2.6 0 0 0-.053.51c0 .556.27.994 1.072.994.396 0 .672-.104.804-.154l.614-3.14c.22-1.201.622-1.996 1.788-1.996.53 0 1.033.115 1.139.146l.353-1.806c-.077-.027-.383-.132-.915-.132Zm30.265 2.9c.112-.621-.244-1.262-1.049-1.262-.982 0-1.413.68-1.606 1.262h2.655Zm.931 2.52c0 .942-.899 1.665-2.49 1.665-2.2 0-3.275-1.39-3.275-3.093 0-1.69 1.105-3.99 3.803-3.99 1.779 0 3.108.897 3.108 2.95 0 .505-.11 1.054-.158 1.274H49.5c-.008.492.401 1.346 2.045 1.346.732 0 1.561-.262 1.695-.33v.178Zm-38.633-2.52c.112-.621-.244-1.262-1.049-1.262-.982 0-1.413.68-1.606 1.262h2.655Zm.931 2.52c0 .942-.899 1.665-2.49 1.665-2.2 0-3.275-1.39-3.275-3.093 0-1.69 1.105-3.99 3.803-3.99 1.779 0 3.109.897 3.109 2.95 0 .505-.111 1.054-.159 1.274h-4.728c-.008.492.401 1.346 2.045 1.346.732 0 1.562-.262 1.695-.33v.178ZM3 15.826h2.1v6.735c0 1.012.496 1.53 1.293 1.53.081 0 .13-.011.145-.015-.35.537-.803.977-1.843.977-1.1 0-1.695-.776-1.695-1.94v-7.287Z" fill="#1A1919"/><path fill-rule="evenodd" clip-rule="evenodd" d="M5.684 21.865v.707c0 .683.363.927.76.927.405 0 .622-.279.821-.596.334-.531 4.411-7.077 4.411-7.077H9.494l-3.81 6.039" fill="#00A3DA"/></svg>
